X:1
T:Pentecost in My Soul
T:Thoro Harris, 1920
T:Pentecost in My Soul
T:Public Domain
T:Public Domain
C:Thoro Harris, 1920
Z:Public Domain
%%score ( 1 2 ) ( 3 4 )
L:1/8
M:4/4
K:Ab
V:1 treble 
V:2 treble 
V:3 bass 
V:4 bass 
V:1
 [CE]2 | [EA]2 [EB]2 [Ec]3 E | [DF]2 [Fd]2 [Ec]3 [Ec] | [Gc][GB][G=A][GB] [Be]2 [GB]2 | %4
w: 1.~To|me the Ho- ly|is giv’n, An ear-|nest of the joys of Heav’n;|
w: 2.~The|Spir- it dwells my|with- in And breaks|the pow’r of par- doned sin;|
w: 3.~O|ho- ly rest! O|sub- lime! He reigns|with- in me all the time;|
w: 4.~Then|seek this Gift with-|de- lay, Re- ceive|the Ho- ly Ghost to- day;|
 [Ac]6 [_Gc]2 | [Fd]2 [Fd]2 [DF]3 [Fd] | [Ec]2 [Ec]2 E3 [_Gc] | [GB]>[GB] B2 [=Ac]2 [_A=d]2 | %8
w: Since He|has tak- en full|con- trol, I’ve Pen-|cost in my soul. *|
w: Tho’ o’er|my head dark clouds|may roll, I’ve Pen-|cost in my soul. I’ve|
w: He pur-|i- fies and makes|me whole— I’ve Pen-|cost in my soul. *|
w: Yield all|to His be- nign|con- trol, Let Pen-|cost fill your soul!~O~yes! *|
 (G2 G2 A2) ||"^Refrain" E2 | [Ec]>[Ec] [Ec]2 [Fd]2 [Ec]2 | [DB]6 E2 | %12
w: ||||
w: te- * *|in|soul, I’ve Pen- te- cost|in my|
w: ||||
w: ||||
 [DB]>[DB] [DB]2 [Ec]2 [DB]2 | [CA]6 [CE]2 | [EA][EA] [EB]2 [Ec]2 [EA]2 | %15
w: |||
w: The Spir- it has come,|has come|to a- bide; I’ve Pen-|
w: |||
w: |||
 [EB]2 [_Gc]>[Gc] [Fd]2 [EB]2 | [Ee]>[Ee] [Ee]2 [Ac]2 [GB]2 | A6 |] %18
w: |||
w: te- cost in my soul.|||
w: |||
w: |||
V:2
 x2 | x7 E | x8 | x8 | x8 | x8 | x4 E3 x | x2 B2 x4 | e6 || E2 | x8 | x6 E2 | x8 | x8 | x8 | x8 | %16
w: |Ghost|||||te-||||||||||
w: |heart|||||te-|Pen-|cost|my||soul;|||||
w: |peace|||||te-||||||||||
w: |out|||||te-||||||||||
 x8 | A6 |] %18
w: ||
w: ||
w: ||
w: ||
V:3
 [A,,A,]2 | [C,A,]2 [E,G,]2 A,3 [C,A,] | [D,A,]2 [D,A,]2 [A,,A,]3 [A,,C] | %3
w: ~|~ ~ ~ ~|~ ~ ~ ~|
 [E,D][E,D][E,D][E,D] [G,D]2 [E,D]2 | [A,C]6 [A,E]2 | [D,D]2 [D,A,]2 (D,E,F,)[G,B,] | %6
w: ~ ~ ~ ~ ~ ~|~ ~|~ ~ ~ * * ~|
 [A,C]2 A,2 ([_A,C][B,D][CE])[=A,E] | [B,E]>[B,E] [G,E]2 [F,E]2 B,2 | ([E,B,]2 [D,B,]2 [C,A,]2) || %9
w: ~ ~ ~ * * ~|~ ~ ~ ~ ~|~ * *|
 [B,,G,]2 | [A,,A,]>[A,,A,] [A,,A,]2 z4 | B,[A,B,][G,B,][F,A,] [E,G,]2 E,2 | %12
w: Glo-|ry be to|God! ~ ~ ~ ~ Glo-|
 [E,G,]>[E,G,] [E,G,]2 z4 | A,[F,A,][E,A,][C,A,] [A,,A,]2 [A,,A,]2 | %14
w: to God! *||
 [C,A,][C,A,] [E,G,]2 A,2 [C,A,]2 | [E,G,]2 A,>A, [D,A,]2 [D,G,]2 | %16
w: ||
 [C,A,]>[B,,B,] [A,,C]2 [E,E]2 [E,D]2 | [A,,C]6 |] %18
w: ||
V:4
 x2 | x4 A,3 x | x8 | x8 | x8 | x4 A,3 x | x2 =A,2 x4 | x6 B,2 | x6 || x2 | x8 | B, x4 E,2 x | x8 | %13
w: |~||||~|~|~||||ry be||
 A, x7 | x4 A,2 x2 | x2 A,>A, x4 | x8 | x6 |] %18
w: |||||

